COLOR/categories 16/16/applications-geography.svg

<svg height="16" width="16" xmlns="http://www.w3.org/2000/svg"><path d="m3.8242244 1.4997202c-1.75835-.009-2.58368.11745-2.97655996.8125001-.2696.76907-.34766 1.84675-.34766 3.37109v3.6328201c0 4.5362896.64891996 5.1835896 5.18944996 5.1835896h2.31055 2.3105496c4.54055 0 5.18945-.6473 5.18945-5.1835896v-3.6328201c0-1.52434-.0781-2.60202-.34766-3.37109-.39288-.6950501-1.21821-.8212001-2.97656-.8125001h-4.1757796z" fill="#6dc7f1"/><path d="m15.171875 2.5039062c.234096.7588795.328125 1.741888.328125 3.1796876v-.828125c0-1.1662525-.102026-1.8494425-.328125-2.3515626z" fill="#e3dfd5"/><path d="m8.8183594 14.5h1.4921876c1.135137 0 2.027213-.040311 2.726562-.171875.69935-.131564 1.205416-.354319 1.570313-.71875s.588923-.871712.720703-1.570313c.13178-.6986.171875-1.588583.171875-2.7226558v-3.6328124c0-1.4377996-.094029-2.4208081-.328125-3.1796876-.036701-.0815053-.062583-.1838564-.109375-.2519531-.161421-.2397789-.413013-.3900752-.726562-.5-.096339-.0331761-.153754-.093577-.267579-.1171875-.467231-.1022337-1.060629-.1388819-1.892578-.1347656h-3.5058591l-2.5546875 10.154297z" fill="#e3dfd5"/><path d="m15.171875 2.5058594c-.01422-.0461586-.004073-.1492566-.019531-.1933594-.19644-.3475251-.501326-.5525906-.976563-.6699219-.475236-.1173312-1.120825-.1469281-2-.1425781h-4.175781-4.1757812c-.8791751-.0045-1.5247638.0252094-2 .1425781-.4752363.1173688-.7801226.3223968-.97656255.6699219-.25475783.7267307-.31967836 1.7912024-.328125 3.1855469 2.02411515 2.0936785 5.73287405 5.9122521 5.70898435 6.0078121l8.7871094-8.7226559z" fill="#a6d74f"/><path d="m.50000444 4.9430803v1.81445l7.57030996 7.7421897h1.77344z" fill="#f9f9f9" fill-opacity=".996078"/><path d="m2.6445312 14.181641c.1264781.034623.1764468.119787.3183594.146484.3206073.060314.843573.051226 1.25.078125l11.0527344-10.9941406c-.033774-.2122915-.024961-.5457373-.074219-.7265625-.059888-.1662044-.105087-.3634825-.199218-.4824219-.042945-.0556095-.128349-.0761184-.179688-.1230469z" fill="#fdc92b"/><path d="m10.991674 3.0037303c-1.3248996 0-2.3989996 1.07409-2.3989996 2.39905 0 .26308.044.51551.1226.75237.01.0241.014.0488.023.0725.061.2022.9568 3.1408501 2.2559996 5.7760697.0003 0 .0009-.00024.001-.0006.0006-.00024.0009-.00081 0-.001.0006-.00054.0009-.001.001-.001.0006-.00036.0009-.00069 0-.00069 1.3882-2.8781096 2.2705-5.8445497 2.2705-5.8445497h-.0006c.078-.23673.1211-.48949.1211-.7524 0-1.32497-1.0741-2.39906-2.3991-2.39906z" fill="#f22c42"/><circle cx="10.973362" cy="5.43075" fill="#bc1938" r="1.183911"/><path d="m.5 8.8164062v.5c0 4.5362898.6489231 5.1835938 5.1894531 5.1835938h2.3105469 2.310547c4.54055 0 5.189453-.647304 5.189453-5.1835938v-.5c0 4.5362898-.648903 5.1835938-5.189453 5.1835938h-2.310547-2.3105469c-4.54053 0-5.1894531-.647304-5.1894531-5.1835938z" opacity=".2"/><path d="m3.8242188 1.5c-1.7583501-.009-2.5836826.1174499-2.97656255.8125-.2696.76907-.34765625 1.8467538-.34765625 3.3710938v.5c0-1.5243401.07805625-2.6020238.34765625-3.3710938.39287995-.6950501 1.21821245-.8215 2.97656255-.8125h4.1757812 4.175781c1.75835-.0087 2.583683.1174499 2.976563.8125.26956.76907.347656 1.8467538.347656 3.3710938v-.5c0-1.52434-.078096-2.6020238-.347656-3.3710938-.39288-.6950501-1.218213-.8212-2.976563-.8125h-4.175781z" fill="#fff" opacity=".3"/></svg>

<?xml version="1.0" encoding="UTF-8" standalone="no"?>
<svg
   xmlns:osb="http://www.openswatchbook.org/uri/2009/osb"
   xmlns:dc="http://purl.org/dc/elements/1.1/"
   xmlns:cc="http://creativecommons.org/ns#"
   xmlns:rdf="http://www.w3.org/1999/02/22-rdf-syntax-ns#"
   xmlns:svg="http://www.w3.org/2000/svg"
   xmlns="http://www.w3.org/2000/svg"
   xmlns:sodipodi="http://sodipodi.sourceforge.net/DTD/sodipodi-0.dtd"
   xmlns:inkscape="http://www.inkscape.org/namespaces/inkscape"
   height="16"
   id="svg7384"
   version="1.1"
   width="16"
   sodipodi:docname="maps-app.svg"
   inkscape:version="0.92.4 (5da689c313, 2019-01-14)">
  <sodipodi:namedview
     pagecolor="#ffffff"
     bordercolor="#666666"
     borderopacity="1"
     objecttolerance="10"
     gridtolerance="10"
     guidetolerance="10"
     inkscape:pageopacity="0"
     inkscape:pageshadow="2"
     inkscape:window-width="1920"
     inkscape:window-height="1016"
     id="namedview21"
     showgrid="false"
     inkscape:zoom="64.535914"
     inkscape:cx="8.0000042"
     inkscape:cy="7.3806767"
     inkscape:window-x="0"
     inkscape:window-y="27"
     inkscape:window-maximized="1"
     inkscape:current-layer="svg7384" />
  <metadata
     id="metadata20854">
    <rdf:RDF>
      <cc:Work
         rdf:about="">
        <dc:title />
        <dc:format>image/svg+xml</dc:format>
        <dc:type
           rdf:resource="http://purl.org/dc/dcmitype/StillImage" />
      </cc:Work>
    </rdf:RDF>
  </metadata>
  <defs
     id="defs7386">
    <linearGradient
       id="linearGradient5606"
       osb:paint="solid">
      <stop
         id="stop5608"
         offset="0"
         style="stop-color:#000000;stop-opacity:1;" />
    </linearGradient>
    <linearGradient
       id="linearGradient4526"
       osb:paint="solid">
      <stop
         id="stop4528"
         offset="0"
         style="stop-color:#ffffff;stop-opacity:1;" />
    </linearGradient>
    <linearGradient
       id="linearGradient3600-4"
       osb:paint="gradient">
      <stop
         id="stop3602-7"
         offset="0"
         style="stop-color:#f4f4f4;stop-opacity:1" />
      <stop
         id="stop3604-6"
         offset="1"
         style="stop-color:#dbdbdb;stop-opacity:1" />
    </linearGradient>
    <clipPath
       clipPathUnits="userSpaceOnUse"
       id="clipPath983">
      <path
         sodipodi:nodetypes="scccssscsss"
         inkscape:connector-curvature="0"
         id="path985"
         d="m 325.09646,237 c -2.80769,0 -3.10979,0.28839 -3.09603,3.10176 V 244 v 3.89824 c -0.0138,2.81337 0.28834,3.10176 3.09603,3.10176 h 5.8075 C 333.71166,251 334,250.71165 334,247.89824 V 244 240.10176 C 334,237.28836 333.71165,237 330.90396,237 Z"
         style="color:#000000;display:inline;overflow:visible;visibility:visible;opacity:1;fill:#46a926;fill-opacity:1;fill-rule:nonzero;stroke:none;stroke-width:2;stroke-miterlimit:4;stroke-dasharray:none;stroke-opacity:1;marker:none;enable-background:accumulate" />
    </clipPath>
  </defs>
  <g
     id="layer9"
     label="status"
     style="display:inline"
     transform="translate(-833.00024,107.00001)" />
  <g
     id="layer2"
     style="display:inline"
     transform="translate(-592.00004,-259.99999)" />
  <g
     id="layer4"
     style="display:inline"
     transform="translate(-592.00004,-259.99999)" />
  <g
     id="g1812"
     style="display:inline"
     transform="translate(-592.00004,-259.99999)" />
  <g
     id="g6217"
     style="display:inline"
     transform="translate(-592.00004,-259.99999)" />
  <g
     id="layer3"
     style="display:inline"
     transform="translate(-592.00004,-259.99999)" />
  <g
     id="layer1"
     style="display:inline"
     transform="translate(-592.00004,-259.99999)" />
  <path
     inkscape:connector-curvature="0"
     style="display:inline;opacity:1;fill:#6dc7f1;fill-opacity:1;stroke:none;stroke-width:2;stroke-linecap:round;stroke-linejoin:round;stroke-miterlimit:4;stroke-dasharray:none;stroke-dashoffset:0;stroke-opacity:1;enable-background:new"
     d="m 3.8242244,1.4997202 c -1.75835,-0.009 -2.58368,0.11745 -2.97655996,0.8125001 -0.2696,0.76907 -0.34766,1.84675 -0.34766,3.37109 v 3.6328201 c 0,4.5362896 0.64891996,5.1835896 5.18944996,5.1835896 h 2.31055 2.3105496 c 4.54055,0 5.18945,-0.6473 5.18945,-5.1835896 V 5.6833103 c 0,-1.52434 -0.0781,-2.60202 -0.34766,-3.37109 -0.39288,-0.6950501 -1.21821,-0.8212001 -2.97656,-0.8125001 H 8.0000044 Z"
     id="path946" />
  <path
     style="color:#000000;display:inline;overflow:visible;visibility:visible;fill:#e3dfd5;fill-opacity:1;fill-rule:nonzero;stroke:none;stroke-width:2.00627851;marker:none;enable-background:accumulate"
     clip-path="none"
     d="M 15.171875 2.5039062 C 15.405971 3.2627857 15.5 4.2457942 15.5 5.6835938 L 15.5 4.8554688 C 15.5 3.6892163 15.397974 3.0060263 15.171875 2.5039062 z "
     id="path876" />
  <path
     style="color:#000000;display:inline;overflow:visible;visibility:visible;fill:#e3dfd5;fill-opacity:1;fill-rule:nonzero;stroke:none;stroke-width:2.00627851;marker:none;enable-background:accumulate"
     clip-path="none"
     d="M 8.8183594 14.5 L 10.310547 14.5 C 11.445684 14.5 12.33776 14.459689 13.037109 14.328125 C 13.736459 14.196561 14.242525 13.973806 14.607422 13.609375 C 14.972319 13.244944 15.196345 12.737663 15.328125 12.039062 C 15.459905 11.340462 15.5 10.450479 15.5 9.3164062 L 15.5 5.6835938 C 15.5 4.2457942 15.405971 3.2627857 15.171875 2.5039062 C 15.135174 2.4224009 15.109292 2.3200498 15.0625 2.2519531 C 14.901079 2.0121742 14.649487 1.8618779 14.335938 1.7519531 C 14.239599 1.718777 14.182184 1.6583761 14.068359 1.6347656 C 13.601128 1.5325319 13.00773 1.4958837 12.175781 1.5 L 8.6699219 1.5 L 6.1152344 11.654297 L 8.8183594 14.5 z "
     id="path953" />
  <path
     style="fill:#a6d74f;stroke:none;stroke-width:1px;stroke-linecap:butt;stroke-linejoin:miter;stroke-opacity:1;fill-opacity:1"
     d="M 15.171875 2.5058594 C 15.157655 2.4597008 15.167802 2.3566028 15.152344 2.3125 C 14.955904 1.9649749 14.651018 1.7599094 14.175781 1.6425781 C 13.700545 1.5252469 13.054956 1.49565 12.175781 1.5 L 8 1.5 L 3.8242188 1.5 C 2.9450437 1.4955 2.299455 1.5252094 1.8242188 1.6425781 C 1.3489825 1.7599469 1.0440962 1.9649749 0.84765625 2.3125 C 0.59289842 3.0392307 0.52797789 4.1037024 0.51953125 5.4980469 C 2.5436464 7.5917254 6.2524053 11.410299 6.2285156 11.505859 L 15.015625 2.7832031 L 15.171875 2.5058594 z "
     id="path890" />
  <path
     inkscape:connector-curvature="0"
     style="color:#000000;display:inline;overflow:visible;visibility:visible;fill:#f9f9f9;fill-opacity:0.99607843;fill-rule:nonzero;stroke:none;stroke-width:2.00627851;marker:none;enable-background:accumulate"
     d="m 0.50000444,4.9430803 v 1.81445 L 8.0703144,14.49972 h 1.77344 z"
     id="path958-65" />
  <path
     style="color:#000000;display:inline;overflow:visible;visibility:visible;fill:#fdc92b;fill-opacity:1;fill-rule:nonzero;stroke:none;stroke-width:4.01255703;marker:none;enable-background:accumulate"
     d="M 2.6445312 14.181641 C 2.7710093 14.216264 2.820978 14.301428 2.9628906 14.328125 C 3.2834979 14.388439 3.8064636 14.379351 4.2128906 14.40625 L 15.265625 3.4121094 C 15.231851 3.1998179 15.240664 2.8663721 15.191406 2.6855469 C 15.131518 2.5193425 15.086319 2.3220644 14.992188 2.203125 C 14.949243 2.1475155 14.863839 2.1270066 14.8125 2.0800781 L 2.6445312 14.181641 z "
     id="path960" />
  <path
     inkscape:transform-center-y="-151.90341"
     inkscape:transform-center-x="0.2769014"
     id="path1059"
     d="m 10.991674,3.0037303 c -1.3248996,0 -2.3989996,1.07409 -2.3989996,2.39905 0,0.26308 0.044,0.51551 0.1226,0.75237 0.01,0.0241 0.014,0.0488 0.023,0.0725 0.061,0.2022 0.9568,3.1408501 2.2559996,5.7760697 3e-4,0 9e-4,-2.4e-4 10e-4,-6e-4 6e-4,-2.4e-4 9e-4,-8.1e-4 0,-10e-4 6e-4,-5.4e-4 9e-4,-10e-4 10e-4,-10e-4 6e-4,-3.6e-4 9e-4,-6.9e-4 0,-6.9e-4 1.3882,-2.8781096 2.2705,-5.8445497 2.2705,-5.8445497 h -6e-4 c 0.078,-0.23673 0.1211,-0.48949 0.1211,-0.7524 0,-1.32497 -1.0741,-2.39906 -2.3991,-2.39906 z"
     style="color:#000000;display:inline;overflow:visible;visibility:visible;fill:#f22c42;fill-opacity:1;fill-rule:nonzero;stroke:none;stroke-width:2.99999976;marker:none;enable-background:accumulate"
     inkscape:connector-curvature="0" />
  <circle
     inkscape:transform-center-y="-219.429"
     inkscape:transform-center-x="0.2725578"
     style="color:#000000;display:inline;overflow:visible;visibility:visible;opacity:1;fill:#bc1938;fill-opacity:1;fill-rule:nonzero;stroke:none;stroke-width:2;marker:none;enable-background:accumulate"
     id="circle1061"
     cx="10.973362"
     cy="5.4307504"
     r="1.1839106" />
  <path
     style="display:inline;opacity:0.2;fill:#000000;fill-opacity:1;stroke:none;stroke-width:2;stroke-linecap:round;stroke-linejoin:round;stroke-miterlimit:4;stroke-dasharray:none;stroke-dashoffset:0;stroke-opacity:1;enable-background:new"
     d="M 0.5 8.8164062 L 0.5 9.3164062 C 0.5 13.852696 1.1489231 14.5 5.6894531 14.5 L 8 14.5 L 10.310547 14.5 C 14.851097 14.5 15.5 13.852696 15.5 9.3164062 L 15.5 8.8164062 C 15.5 13.352696 14.851097 14 10.310547 14 L 8 14 L 5.6894531 14 C 1.1489231 14 0.5 13.352696 0.5 8.8164062 z "
     id="path901" />
  <path
     style="display:inline;opacity:0.3;fill:#ffffff;fill-opacity:1;stroke:none;stroke-width:2;stroke-linecap:round;stroke-linejoin:round;stroke-miterlimit:4;stroke-dasharray:none;stroke-dashoffset:0;stroke-opacity:1;enable-background:new"
     d="M 3.8242188 1.5 C 2.0658687 1.491 1.2405362 1.6174499 0.84765625 2.3125 C 0.57805625 3.08157 0.5 4.1592538 0.5 5.6835938 L 0.5 6.1835938 C 0.5 4.6592537 0.57805625 3.58157 0.84765625 2.8125 C 1.2405362 2.1174499 2.0658687 1.991 3.8242188 2 L 8 2 L 12.175781 2 C 13.934131 1.9913 14.759464 2.1174499 15.152344 2.8125 C 15.421904 3.58157 15.5 4.6592538 15.5 6.1835938 L 15.5 5.6835938 C 15.5 4.1592538 15.421904 3.08157 15.152344 2.3125 C 14.759464 1.6174499 13.934131 1.4913 12.175781 1.5 L 8 1.5 L 3.8242188 1.5 z "
     id="path905" />
</svg>
